src/assets/images/house.svg

<svg viewBox="0 0 84.8 90" xmlns="http://www.w3.org/2000/svg" xmlns:xlink="http://www.w3.org/1999/xlink"><linearGradient id="a" gradientUnits="objectBoundingBox" x2="1" y1=".5" y2=".5"><stop offset="0" stop-color="#6fc68e"/><stop offset="1" stop-color="#47b593"/></linearGradient><path d="m23.5 16.3-21 22v40.8l42.7 10.4 1.3-40.7z" fill="#afe2bd"/><path d="m28.9 58.2v27.3l-10.7-2.7v-27.3z" fill="#1f4e46"/><path d="m23.6 19.8 19.2 29.3v39.8l4.3 1.1 37.7-12-.1-42.1-23.5-35.9-37.7 12m48.3 48.3-5.2 1.7v-5.9l5.2-1.7zm-6.6-3.8v5.9l-5.2 1.7v-5.9zm-5.3 9.1 5.2-1.7v5.9l-5.2 1.7zm6.7 3.7v-5.9l5.2-1.7v5.9z" fill="url(#a)"/><path d="m23.4 12.1-23.4 24.2v42.1l4.3 1.1v-39.8l19.2-19.8" fill="#1f4e46"/></svg>

<svg id="Groupe_48" data-name="Groupe 48" xmlns="http://www.w3.org/2000/svg" xmlns:xlink="http://www.w3.org/1999/xlink" viewBox="0 0 84.8 90">
  <defs>
    <style>
      .cls-1 {
        fill: #afe2bd;
      }

      .cls-2 {
        fill: #1f4e46;
      }

      .cls-3 {
        fill: url(#linear-gradient);
      }
    </style>
    <linearGradient id="linear-gradient" y1="0.5" x2="1" y2="0.5" gradientUnits="objectBoundingBox">
      <stop offset="0" stop-color="#6fc68e"/>
      <stop offset="1" stop-color="#47b593"/>
    </linearGradient>
  </defs>
  <path id="Tracé_494" data-name="Tracé 494" class="cls-1" d="M23.5,16.3l-21,22V79.1L45.2,89.5l1.3-40.7Z"/>
  <g id="Groupe_47" data-name="Groupe 47">
    <path id="Tracé_495" data-name="Tracé 495" class="cls-2" d="M28.9,58.2V85.5L18.2,82.8V55.5Z"/>
  </g>
  <path id="Tracé_496" data-name="Tracé 496" class="cls-3" d="M23.6,19.8,42.8,49.1V88.9L47.1,90,84.8,78l-.1-42.1L61.2,0,23.5,12M71.8,60.3,66.6,62V56.1l5.2-1.7Zm-6.6-3.8v5.9L60,64.1V58.2Zm-5.3,9.1,5.2-1.7v5.9l-5.2,1.7V65.6Zm6.7,3.7V63.4l5.2-1.7v5.9Z"/>
  <path id="Tracé_497" data-name="Tracé 497" class="cls-2" d="M23.4,12.1,0,36.3V78.4l4.3,1.1V39.7L23.5,19.9"/>
</svg>
